X: 8243
T: Corchran's Mill
R: reel
M: 4/4
K: Cmajor
z2CD EGcA|GEDA, CDEA,|A,A,CD EGcd|ecdd cdec|
c2CD EGcA|GED/D/D CDEA,|A,A,CD EGcd|eccd cdec|
cGcd ega/a/a|gea/a/a geed|dgec c/c/cdA|cGAc GEED|
DGcd eg/a/a/ag/|eg/g/ag eedd|gedc AGEG|DCDE ECC2|

